X:1
T:Israeli Concertino 1. Satz
T: Hora-Hatikvah from the Israeli Concertino 
T:George Perlman
Z:George Perlman
%%score 1 2
L:1/8
Q:1/4=132
M:4/4
K:C
V:1 treble nm="Violon" snm="Vln."
V:2 bass transpose=-12 nm="Contrebasse" snm="Cb."
V:1
!mf! z8 | z8 | z8 | z8 | z8 | z8 | z8 | z8 |!ff!{/A} !>!a4{/A} !>!a4 |{/A} !>!a2 !>!a2 !>!a2 z2 | %10
 z va2 b (!>!c'b) c'2 | z va2 ^g (!>!fe) f2 | z va2 b (d'c')(ba) | b2 !open!e'2 b2 !open!e'2 | %14
 z d'2 c' (!>!ba) b2 | z a2 ^g (!>!fe) f2 | (d2 !open!a2) (^gf).e.d | e4 e'4 | B (B2 c) .d.e.d.c | %19
 .B.c.B.A (^GF) E2 | B (B2 c) .d.e.f.e | (gf)ed e4 | z ve'2 ^d' (!>!c'b) c'2 | %23
 z vb2 a (!>!^gf) g2 | (d2 !0!a2) (d2 !0!a2) | e4 E4 |!p! z vA2 A (!>!B^G) A2 | %27
 z vE2 E (!>!FD) E2 | z vA2 A (cB)AG | (FE).D.^C D2 D2 | z!>(! vF2 F (!>!ED) C2!>)! | %31
 z!>(! vD2 D (!>!CB,) A,2!>)! |!f! !>!G,2 !>!G,2 .C.B,.A,.G, | !>!A,4{/^G,} !>!A,4 | %34
 z!p! vA,2 A, .A,.B,.C.B, | z vA,2 A, (!>!A,G,) A,2 | z vA,2 B, .D.C.B,.A, | !>!E4{/^D} !>!E4 | %38
 z vD2 C (!>!DE) D2 | z vC2 B, (!>!CD) C2 | B,2 A,2 .D.C.B,.A, | %41
 !>!^G,4"^(Hatikvah)"{/=G,} !>!^G,4 |"^meno mosso"[Q:1/4=100] (A,!<(!B,)(CD) E2 E2!<)! | %43
{/G} (FEFA) E4 | D2 (DB,) C2 C2 | (B,!>(!A,B,C) A,4!>)! | (A,!<(!B,)(CD) E2 E2!<)! | %47
{/G} (FEFA) E4 | D2 (DB,) C2 C2 | (B,!>(!A,B,C) A,4!>)! |!ff! (A,2 A2) (!tenuto!A2 !tenuto!A2) | %51
 (GAGF) E4 | (A,2 A2) (!tenuto!A2 !tenuto!A2) | (GAGF) E4 |!mf! D2 (DB,) C2 C2 | (DEFG) ED C2 | %56
 D2 (DB,) C2 C2 | (B,A,B,C) A,4 |!mf! D2 (DB,) C2 C2 | (DEFG) ED C2 | D2 (DB,) C2 C2 | %61
"^accel." (B,!<(!A,)(B,E) (^GB)(e^g)!<)! |"^a tempo 1"[Q:1/4=132]!ff!{/A} !>!a4{/A} !>!a4 | %63
{/A} !>!a2 !>!a2 !>!a2 z2 | z va2 b (!>!c'b) c'2 | z va2 ^g (!>!fe) f2 | z va2 b (d'c')(ba) | %67
 b2 !open!e'2 b2 !open!e'2 | z d'2 c' (!>!ba) b2 | z a2 ^g (!>!fe) f2 | (d2 !open!a2) (^gf).e.d | %71
 e4 e'4 | B (B2 c) .d.e.d.c | .B.c.B.A (^GF) E2 | B (B2 c) .d.e.f.e | (gf)ed e4 | %76
 z ve'2 ^d' (!>!c'b) c'2 | z vb2 a (!>!^gf) g2 | (!>!ab)(!>!^ga) (!>!f=g)(!>!ef) | %79
 (!>!de)(!>!cd) (!>!Bc)(!>!AB) | !>!A!ff! (a2 b) (!>!c'b) a2 | !>!e'!ff! (a2 b) (!>!c'b) a2 | %82
 .e'.a.c'.e .a.c.e.A | a/a/c/c/ e/e/A/A/ c/c/E/E/ A/A/C/C/ | vA,2 u[A,EA]2 [A,Ec]2 [A,EAe]2 | %85
 [A,Eca]2 z2 [EB^g]2 z2 | !tenuto![A,Eca]2 !tenuto!A,2 !tenuto!A,2 !tenuto!A,2 | .A,2 z2 z4 |] %88
V:2
!mf! z A,2 A, .A,.B,.C.B, | z A,2 A, .A,.G, A,2 | z A,2 B, .D.C.B,.A, | !>!E4{/^D} !>!E4 | %4
 z D2 C .D.E D2 | z C2 B, .C.D C2 | B,2 A,2 .D.C.B,.A, | !>!^G,4{/=G,} !>!^G,4 | %8
!f! z2{/^D,} !>!E,2 z2{/D,} !>!E,2 | z{/^D,} !>!E, z{/D,} !>!E, z2{/D,} !>!E,2 | %10
 z A,2 A, !>!C2 C2 | z A,2 A, !>!F,4 | z A,2 A, z C2 C | z (E,EE,) z (E,EE,) | z B,2 B, !>!D2 D2 | %15
 z A,2 A, !>!F,4 | D4 D4 | z (E,EE,) z (E,EE,) | !>!^G,3 E, !>!G,3 E, | .^G,.A,.G,.F, E,F, G,2 | %20
 !>!B,3 ^G, !>!B,3 G, | .B,.C.B,.A, .B,.A, ^G,2 | z E2 C EC E2 | z D2 B, DB, D2 | !>!F2 D2 F2 D2 | %25
{/E} .E,.F,.E,.D, .C,.D,.C,.B,, |!p! z E,2 E, F,2 E,2 | z C,2 C, D,2 C,2 | z A,2 A, C2 C2 | %29
 z A,2 A, B,4 | z F,2 F, E,4 | z D,2 D, C,4 | G,2 G,,2 G,2 G,,2 | ^F,4 F,4 | %34
 z!p! C,2 (C, D,2) D,2 | z C,2 (C, C,4) | z C,2 (C, D,2) D,2 | !>!E,4 !>![C,A,]4 | %38
 z A,2 A,, !>!A,A,, A,2 | z E,2 A,, !>!E,A,, E,2 | [A,,F,]4 [A,,A,]4 | [^G,,E,]4 [B,,^G,]4 | %42
!<(! [C,A,]2 C,D, E,2 C,2!<)! | F,2 F,D, E,4 | D,4 C,D,E,C, |!>(! B,,2 E,2 C,4!>)! | %46
 [C,A,]2 C,D, E,2 C,2 | F,2 F,D, E,4 | D,4 C,D, E,2 |!>(! B,,2 E,2 C,4!>)! | %50
!f! [C,A,]2 [C,A,]2 [C,A,]2 [C,A,]2 | [B,,G,]4 [G,,E,]4 | [A,,F,]4 [C,A,]4 | [B,,G,]4 [^G,,E,]4 | %54
!mf! D,2 D,2 C,2 C,2 | D,2 G,F, [G,,E,]4 | D,2 D,2 C,D, E,2 | [C,A,]2 [B,,^G,]2 [C,A,]4 | %58
 [D,B,]2 [D,B,]2 [E,C]2 [E,C][E,C] | [F,D]2 [F,D]2 [E,C]4 | [^G,F]2 [G,F]2 [A,E]2 [A,E][A,E] | %61
!<(! [B,^G]2 [B,G]6!<)! |!f! [A,A]2{/^D,} !>!E,2 z2{/D,} !>!E,2 | %63
 z{/^D,} !>!E, z{/D,} !>!E, z2{/D,} !>!E,2 | z A,2 A, !>!C2 C2 | z A,2 A, !>!F,4 | %66
 z A,2 A, z C2 C | z (E,EE,) z (E,EE,) | z B,2 B, !>!D2 D2 | z A,2 A, !>!F,4 | D4 D4 | %71
 z (E,EE,) z (E,EE,) | !>!^G,3 E, !>!G,3 E, | .^G,.A,.G,.F, E,F, G,2 | !>!B,3 ^G, !>!B,3 G, | %75
 .B,.C.B,.A, .B,.A, ^G,2 | z E2 C EC E2 | z D2 B, DB, D2 | !>!F2 !>!E2 !>!D2 !>!C2 | %79
 !>!B,2 !>!A,2 !>!G,2 !>!^F,2 |!f! !>![_E,A,]2 z2 z4 | !>![E,E]2 z2 z4 | C E,2 A,{/^D} .E.A, E,2 | %83
 [C,^E,]4 z4 | z2 A,,2 C,2 E,2 | [C,A,]2 z2 [E,E]2 z2 | %86
 !tenuto!A,2 !tenuto!A,,2 !tenuto!A,,2 !tenuto!A,,2 | .A,,2 z2 z4 |] %88

